X:1
T:[ID 7-137]
T:[ID 7-137]
T:Bezeichnung standardisiert: Largo Largo Echo 6.
T:Urheber unbekannt Datum in der hier transkribierten schriftlichen Quelle: 1776 - 1791
C:Urheber unbekannt
C:Datum in der hier transkribierten schriftlichen Quelle: 1776 - 1791
L:1/8
M:4/4
K:G
V:1 treble 
V:1
 d4{c} B2 B2 | d4{c} B2 d2 | c4 B2 B2 |{B} AGAB G2 z2 |!p!{b} agab g2 z2 | d3 c (dB)(dB) | %6
 d3 c B2 de | d2 c2 c2 B2 |{c} B4 A2 z2 :: ^c2 c4 de |{d} =c2 c4 Ac | B3 d cBAG | G4 F4 | %13
"^1)" G4 BG dB | g3 f/e/ d4 |"^1)" G4 BG dB | g3 f/e/ d4 | d3 (e/_f/) e2 z d | c3 (d/e/) d2 z G | %19
 d8 | B8 |{B} AGAB G2 z2 |!p!{b} agab g2 z2 :| %23

